raw-svg/volume-off.svg

<svg viewBox="0 0 24 24" xmlns="http://www.w3.org/2000/svg"><path d="m17 19.75a.81.81 0 0 1 -.47-.16l-4.79-3.84h-4.74a.76.76 0 0 1 -.75-.75v-6a.76.76 0 0 1 .75-.75h4.74l4.79-3.84a.75.75 0 0 1 1.22.59v14a.77.77 0 0 1 -.42.68.78.78 0 0 1 -.33.07zm-9.25-5.5h4.25a.78.78 0 0 1 .47.16l3.78 3v-10.85l-3.78 3a.78.78 0 0 1 -.47.16h-4.25z"/></svg>

<svg xmlns="http://www.w3.org/2000/svg" viewBox="0 0 24 24"><g id="volume-off"><path d="M17,19.75a.81.81,0,0,1-.47-.16l-4.79-3.84H7A.76.76,0,0,1,6.25,15V9A.76.76,0,0,1,7,8.25h4.74l4.79-3.84A.75.75,0,0,1,17.75,5V19a.77.77,0,0,1-.42.68A.78.78,0,0,1,17,19.75Zm-9.25-5.5H12a.78.78,0,0,1,.47.16l3.78,3V6.56l-3.78,3a.78.78,0,0,1-.47.16H7.75Z"/></g></svg>
